X:1
T: The Duchess of Atholl's Slipper
C: Neil Gow, 1788
R: strathspey
Z: RSCDS Book 9 No. 3
Z: Terry Traub, Jan. 30, 2002
M: 4/4
L: 1/16
%
K: G
|: G2 \
| "G"D3G B3G d3B G3B | "G"D3G B3G "Am"EA3 "D7"A3B \
| "G"D3G B3G d3G Bg3 | "D7"d3c B3A "G"GG3 G2 :|
 g2 \
| "G"dg3 g4 d3g b3g | "G"a3g b3g "Am"ea3 "D7"a4 \
| "G"dg3 g4 d3g b3g | "D7"a3g b3g "G"dg3 g4 |
y2\
| "G"dg3 g4 d3g b3g | "G"a3g b3g "Am"ea3 "D7"a4 \
| "G"gb3 "C"eg3 "G"dg3 Bg3 | "D7"d3c B3A "G"GG3 G2 |]
